X:473
T: WENN DIE NACHTIGALLEN SCHLAGEN
N: E1731
O: Europa, Mitteleuropa, Deutschland, Schlesien
R: Scherz - Lied, Soldaten - Lied
M: 3/4
L: 1/8
K: D
 | DCDEFG | A2A2z2 |
ABAGFE | D2D2z2 |
A2A2z2 | B2B2z2 |
c2c2c2 | dAFAD2 |
AAAAe2 | AAAAf2 |
ABAGFE | D2D2z2

@@@ Tune index: 5157
